icons/fill-new-communication-mail-postcard.svg

<svg xmlns="http://www.w3.org/2000/svg" width="32px" height="32px" viewBox="0 0 32 32" version="1.1">
    <title>fill-new-communication-mail-postcard</title>
    <g id="fill-new-communication-mail-postcard" stroke-width="1" fill-rule="evenodd">
        <path d="M29,5 C29.5522847,5 30,5.44771525 30,6 L30,26 C30,26.5522847 29.5522847,27 29,27 L3,27 C2.44771525,27 2,26.5522847 2,26 L2,6 C2,5.44771525 2.44771525,5 3,5 L29,5 Z M17,18 L9,18 C8.44771525,18 8,18.4477153 8,19 C8,19.5522847 8.44771525,20 9,20 L17,20 C17.5522847,20 18,19.5522847 18,19 C18,18.4477153 17.5522847,18 17,18 Z M17,14 L9,14 C8.44771525,14 8,14.4477153 8,15 C8,15.5522847 8.44771525,16 9,16 L17,16 C17.5522847,16 18,15.5522847 18,15 C18,14.4477153 17.5522847,14 17,14 Z M22,10 C20.8954305,10 20,10.8954305 20,12 C20,13.1045695 20.8954305,14 22,14 C23.1045695,14 24,13.1045695 24,12 C24,10.8954305 23.1045695,10 22,10 Z" id="&#24418;&#29366;" />
    </g>
</svg>

<svg xmlns="http://www.w3.org/2000/svg" viewBox="0 0 32 32"><path fill="currentColor" d="M29 5a1 1 0 0 1 1 1v20a1 1 0 0 1-1 1H3a1 1 0 0 1-1-1V6a1 1 0 0 1 1-1zM17 18H9a1 1 0 0 0 0 2h8a1 1 0 0 0 0-2m0-4H9a1 1 0 0 0 0 2h8a1 1 0 0 0 0-2m5-4a2 2 0 1 0 0 4 2 2 0 0 0 0-4"/></svg>
